icons/1_Primary/NPM.svg

<svg xmlns="http://www.w3.org/2000/svg" viewBox="0 0 1024 1024">
   <circle cx="512" cy="512" r="512" style="fill:#cb3837"/>
   <path d="M407.26 599.29h69.83v-34.92h69.83V424.71H407.26zm69.83-139.66H512v69.83h-34.91zm97.76-34.91v139.65h69.83V459.63h34.91v104.74h34.91V459.63h34.91v104.74h34.91V424.71zM239.67 564.37h69.83V459.63h34.91v104.74h34.91V424.71H239.67z" style="fill:#fff"/>
</svg>

<svg width="1024" height="1024" viewBox="0 0 1024 1024" fill="none" xmlns="http://www.w3.org/2000/svg">
<g clip-path="url(#clip0_2_2982)">
<path d="M512 1024C794.77 1024 1024 794.77 1024 512C1024 229.23 794.77 0 512 0C229.23 0 0 229.23 0 512C0 794.77 229.23 1024 512 1024Z" fill="#FF837D"/>
<path d="M407.26 599.29H477.09V564.37H546.92V424.71H407.26V599.29ZM477.09 459.63H512V529.46H477.09V459.63ZM574.85 424.72V564.37H644.68V459.63H679.59V564.37H714.5V459.63H749.41V564.37H784.32V424.71L574.85 424.72ZM239.67 564.37H309.5V459.63H344.41V564.37H379.32V424.71H239.67V564.37Z" fill="white"/>
</g>
<defs>
<clipPath id="clip0_2_2982">
<rect width="1024" height="1024" fill="white"/>
</clipPath>
</defs>
</svg>
